X:1
T: Captain Marshall's Fancy
C:William Marshall
R:Reel
Q: 232
K:A
M:4/4
L:1/8
|:AG AG AB cd|ed cB Ac BA|BA Bc dc de|fe dc BA GE|
AG AG AB cd|ed cB Ac BA|df ed ce dc|FB GE A2 A2:|
|:A,C EA ce ag|ag fe fe dc|B,E GB eg ba|gb ag ag fe|
A,C EA ce ag|ag fe fe dc|df Bd ce Ac|FB GE A2 A2:|
